X:1
T:James Gibb editions
T:O Domine Jesu Christe - Palestrina
%%score [ 1 2 3 4 ]
L:1/8
Q:1/4=96
M:2/2
K:C
V:1 treble nm="Soprano" snm="S"
V:2 treble nm="Alto" snm="A"
V:3 treble-8 nm="Tenor" snm="T"
V:4 bass nm="Bass" snm="B"
V:1
"^Giovanni Pierluigi da Palestrina\n(1526-94)""^O Domine Jesu Christe" A8 | ^G6 A2 | B4 c4- | %3
w: O|Do- mi-|ne Je\-|
 c4 B4 | A8 | ^G8 | z4 ^G4 | A6 A2 | B4 B2 c2- | c2 B2 A2 A2 | ^G4 A4 | z4 c4- | c4 B4 | z2 c4 B2 | %14
w: * su|Chri-|ste,|A-|do- ro|te in cru\-|* ce vul- ne-|ra- tum|fel\-|* le|et a-|
 A4 A2 A2 | A6 ^G2 | c4 d2 d2 | e4 z2 e2 | d3 c B2 B2 | A4 c4- | c2 c2 d2 d2 | B6 B2 | %22
w: ce- to po-|ta- tum:|de- pre- cor|te ut|tu- a vul- ne-|ra sint|* re- me- di-|um a-|
 c2 (B3 A) (A2- | A2 ^G^F G4) | A4 A4 | A2 A2 A4- | A8 | !fermata!A8 |] %28
w: ni- mae * me\-||ae, a-|ni- mae me\-||ae.|
V:2
 E8 | E6 ^F2 | G4 G4- | G4 G4 | (F2 E3 D/C/ D2) | E8 | z4 E4 | E6 F2 | G4 G2 G2- | G2 G2 E2 D2 | %10
w: O|Do- mi-|ne Je\-|* su|Chri\- * * * *|ste,|A-|do- ro|te in cru\-|* ce vul- ne-|
 E4 E4 | z4 A4- | A4 ^G4 | z2 A4 E2 | F4 F2 F2 | (C3 D) E4 | A4 A2 A2 | c4 z2 c2 | B3 A ^G2 G2 | %19
w: ra- tum|fel\-|* le|et a-|ce- to po-|ta\- * tum:|de- pre- cor|te ut|tu- a vul- ne-|
 A4 A4- | A2 A2 A2 A2 | ^G6 G2 | A2 (D2 F4) | E8 | ^C6 E2 | F2 E2 (F4- | F4 E3 D) | !fermata!E8 |] %28
w: ra sint|* re- me- di-|um a-|ni- mae *|me-|ae, a-|ni- mae me\-||ae.|
V:3
 c8 | B6 c2 | d4 e4- | e4 d4 | (c4 A4) | B8 | z4 B4 | c6 c2 | d4 d2 e2- | e2 d2 c2 A2 | B4 A4 | %11
w: O|Do- mi-|ne Je\-|* su|Chri\- *|ste,|A-|do- ro|te in cru\-|* ce vul- ne-|ra- tum|
 z4 e4- | e4 e4 | z2 e4 B2 | c4 d2 d2 | (A3 B c2) B2 | A4 f2 f2 | g4 z2 c2 | G3 A e2 e2 | %19
w: fel\-|* le|et a-|ce- to po-|ta\- * * tum:|de- pre- cor|te ut|tu- a vul- ne-|
 A4 z2 f2- | f2 f2 f2 f2 | e6 e2 | e2 (B2 c2) (d2 | B8) | A4 z2 c2 | d2 e2 (d4- | d4 ^c3 B) | %27
w: ra sint|* re- me- di-|um a-|ni- mae * me\-||ae a-|ni- mae me\-||
 !fermata!^c8 |] %28
w: ae.|
V:4
 A,8 | E,6 A,2 | G,4 C4- | C4 G,4 | (A,2 G,2 F,4) | E,8 | z4 E,4 | A,6 A,2 | G,4 G,2 C2- | %9
w: O|Do- mi-|ne Je\-|* su|Chri\- * *|ste,|A-|do- ro|te in cru\-|
 C2 G,2 A,2 F,2 | E,4 A,4 | z4 A,4- | A,4 E,4 | z2 A,4 G,2 | F,4 D,2 D,2 | F,4 E,4 | F,4 D,2 D2 | %17
w: * ce vul- ne-|ra- tum|fel\-|* le|et a-|ce- to po-|ta- tum:|de- pre- cor|
 C4 z4 | z8 | z4 F,4- | F,2 F,2 D,2 D,2 | E,6 E,2 | A,2 (G,2 F,2) (D,2 | E,8) | A,4 A,4 | %25
w: te||sint|* re- me- di-|um a-|ni- mae * me\-||ae, a-|
 D2 C2 (D4 | A,8) | !fermata!A,8 |] %28
w: ni- mae me\-||ae.|

